X: 4048
T: Blathanna
R: jig
M: 6/8
K: Bminor
B2>c2 dB|cA A2 Bc|d2>e2 (3fed|ca a2 z g|
fd d2 ef|ec AE (3EFA|B2 B2 BA|B4 z2:|
g2>f2 ed|g2 f z ed|c2>d2 (3edc|d2>e2 (3fga|
g2>f2 ed|ga fg ed|cA AE (3EFA|B4 z2||
g2> f2 ed|g2 f z ed|c2> d2 (3edc|d2> e2 (3fed|
B2>c2 (3dcB|cA AE (3EFA|B4 BA|B4 z2||
M:5/4
|:BEFA Bde2 dc|BEFA BFA2 FA|
BEFA Bde2 de|fedB AFd2 cA:|
|:Bdef dBe2 dc|Bdef dBA2 FA|
Bdef dBe2 ag|fedB AFd2 cA:|

